!!!SOCIAL_FUNCTION:	songs used in the treatment of the sick
!!!PDT:	1922
!!!OTL: No_52_Song_Used_in_Treatment_of_Sick_(a).krn
!!!REG: Southwest
!!!LANG: Non-Tone
!!!LING_GROUP: Uto-Aztecan
**kern
*staff1
*clefF4
*k[b-e-a-]
*M2/4
4B-\
=1
8.c\L
16B-\Jk
8c\L
16B-\L
16B-\JJ
=2||
*M3/4
2B-\
4B-\
=3||
*M2/4
8F\L
16E-\L
16E-\JJ
8F\L
16E-\L
16E-\JJ
=4
2E-\
=5
8.F\L
16E-\Jk
8G\L
16E-\L
16E-\JJ
=6||
*M3/4
2E-\
8E-/L
8BB-/J
=7||
*M2/4
4E-;\
8F\L
16E-\L
16E-\JJ
=8
4.E-\
8E-\
=9
4BB-/
8.BB-/L
16BB-/Jk
=10
2BB-/
==
*-
